vendor/shopware/storefront/Resources/app/storefront/dist/assets/icon/default/layout.svg

<svg xmlns="http://www.w3.org/2000/svg" width="24" height="24" viewBox="0 0 24 24">
  <path fill="#758CA3" fill-rule="evenodd" d="M7,9 L2,9 L2,7 L22,7 L22,9 L9,9 L9,22 L7,22 L7,9 Z M3,8.9568652e-16 L21,8.9568652e-16 C22.6568542,1.39726555e-16 24,1.34314575 24,3 L24,21 C24,22.6568542 22.6568542,24 21,24 L3,24 C1.34314575,24 -2.41183085e-16,22.6568542 -4.4408921e-16,21 L-1.97215226e-31,3 C-6.46995335e-16,1.34314575 1.34314575,2.08071949e-15 3,8.9568652e-16 Z M3,2 C2.44771525,2 2,2.44771525 2,3 L2,21 C2,21.5522847 2.44771525,22 3,22 L21,22 C21.5522847,22 22,21.5522847 22,21 L22,3 C22,2.44771525 21.5522847,2 21,2 L3,2 Z"/>
</svg>

<svg xmlns="http://www.w3.org/2000/svg" width="24" height="24" viewBox="0 0 24 24"><path fill="#758CA3" fill-rule="evenodd" d="M7 9H2V7h20v2H9v13H7V9zM3 0h18c1.6569 0 3 1.3431 3 3v18c0 1.6569-1.3431 3-3 3H3c-1.6569 0-3-1.3431-3-3V3c0-1.6569 1.3431-3 3-3zm0 2c-.5523 0-1 .4477-1 1v18c0 .5523.4477 1 1 1h18c.5523 0 1-.4477 1-1V3c0-.5523-.4477-1-1-1H3z"/></svg>
